X: 40492
T: Tomeen O'Dea's
R: reel
M: 4/4
K: Gmajor
dc|:BGAG EGDG|EAAG A2 dc|BGAG EGDG|1 EGGD EGGA:|2 EGGD EGGF||
G2 B/c/d eBdB|GBdB BAAB|G2 B/c/d eedB|dBAc BGGF|
G2 B/c/d eBdB|GBdB BAAB|G2 B/c/d edef|gbaf gedc||

